docs/img/rock.svg

<svg version="1.2" xmlns="http://www.w3.org/2000/svg" viewBox="0 0 53 40" width="53" height="40"><style>.a{fill:#c0301c}</style><path fill-rule="evenodd" class="a" d="m15.2 34.2c-0.4 0.4-1 0.4-1.4 0l-13.4-13.5c-0.4-0.4-0.4-1 0-1.4l13.4-13.5c0.4-0.4 1-0.4 1.4 0l1.4 1.5c0.4 0.4 0.4 0.9 0 1.3l-11.3 11.4 11.3 11.4c0.4 0.4 0.4 0.9 0 1.3zm18.5-32.4c0.1-0.4-0.1-1-0.6-1.1l-1.8-0.5c-0.5-0.1-1 0.1-1.1 0.6l-10.8 37.5c-0.2 0.4 0.1 1 0.6 1.1l1.8 0.5c0.5 0.2 1-0.1 1.1-0.6zm19 18.8c0.4-0.3 0.4-0.9 0-1.3l-13.5-13.5c-0.3-0.4-0.9-0.4-1.3 0l-1.4 1.4c-0.4 0.4-0.4 1 0 1.4l11.3 11.4-11.3 11.4c-0.4 0.3-0.4 0.9 0 1.3l1.4 1.4c0.4 0.4 1 0.4 1.3 0z"/></svg>

<svg version="1.2" xmlns="http://www.w3.org/2000/svg" width="53" height="40"><path fill-rule="evenodd" d="M15.2 34.2c-.4.4-1 .4-1.4 0L.4 20.7c-.4-.4-.4-1 0-1.4L13.8 5.8c.4-.4 1-.4 1.4 0l1.4 1.5c.4.4.4.9 0 1.3L5.3 20l11.3 11.4c.4.4.4.9 0 1.3zM33.7 1.8c.1-.4-.1-1-.6-1.1L31.3.2c-.5-.1-1 .1-1.1.6L19.4 38.3c-.2.4.1 1 .6 1.1l1.8.5c.5.2 1-.1 1.1-.6zm19 18.8c.4-.3.4-.9 0-1.3L39.2 5.8c-.3-.4-.9-.4-1.3 0l-1.4 1.4c-.4.4-.4 1 0 1.4L47.8 20 36.5 31.4c-.4.3-.4.9 0 1.3l1.4 1.4c.4.4 1 .4 1.3 0z" style="fill:#c0301c"/></svg>
